X:1
T:B. D. Ackley
T:Rev. W. C. Poole
T:Every Day
%%score { ( 1 2 ) | ( 3 4 ) }
L:1/8
M:4/4
K:Ab
V:1 treble 
V:2 treble 
V:3 bass 
V:4 bass 
V:1
{/x} E=DEF E2 c2 | cB=AB F4 | GdFd G2 F2 | FE=DE c4 | E=DEF E2 c2 | cB=AB f4 | AAGA cB=dA | %7
w: Ev\- 'ry day the Sav\- ior|Sends me bless\- ings new;|Ev\- 'ry day He cheers me|With His prom\- ise true;|Ev\- 'ry day He guides me,|Lest my feet should stray,|As I fol\- low Je\- sus Ev\- 'ry|
w: Ev\- 'ry day His glad\- ness|Fills and thrills my soul,|When I let the Sav\- ior|Have com\- plete con\- trol;|So my heart is ring\- ing|With its sweet\- est lay,|And its tri\- butes bring\- ing Ev\- 'ry|
w: Ev\- 'ry day for Je\- sus,|This my song shall be;|Ev\- 'ry day for Je\- sus,|Who has ran\- somed me;|Work\- ing for the Mas\- ter|All a\- long the way,|I will live for Je\- sus Ev\- 'ry|
 (e4 d4) |"^Chorus" cc=Bc fe c2 | cB=AB dB F2 | GA=AB e2 d2 | c2 c2 d4 | cc=Bc fe c2 | %13
w: day. *|Ev\- 'ry day His bless\- ings new|Fall a\- round me like the dew;|Ev\- 'ry day the Sav\- ior|gives to me||
w: day. *|||||On life's way the vic\- to\- ry;|
w: day. *||||||
 cB=AB dB F2 | GBed F2 G2 | A6 z2 |] %16
w: |I will serve Him ev- 'ry|day.|
w: So a\- long my pil\- grim way|||
w: |||
V:2
 C=B,C_D C2 E2 | FFFF D4 | DDDD D2 D2 | DC=B,_D E4 | C=B,C_D C2 E2 | FFFF _A4 | EEEE AAAA | %7
 (G4 B4) | AAAA AA A2 | FFFF FF D2 | EF^FG G2 G2 | A2 ^F2 G4 | AAAA AA A2 | FFFF FF D2 | %14
 EGGG D2 D2 | C6 z2 |] %16
V:3
 A,A,A,A, A,2 A,2 | A,A,A,A, B,4 | B,G,B,G, B,2 G,2 | A,A,A,A, A,4 | A,A,A,A, A,2 A,2 | %5
 A,A,A,A, =B,4 | CCB,C =DDDD | E4- E4 | EE=DE _DC E2 | DDDD B,B, B,2 | B,B,EE B,2 E2 | E2 E2 E4 | %12
 EE=DE _DC E2 | DDDD B,B, B,2 | B,EB,B, B,2 B,2 | A,6 z2 |] %16
V:4
 A,,A,,A,,A,, A,2 A,2 | D,D,D,D, D,4 | E,E,E,E, E,2 E,2 | A,,A,,A,,A,, A,,4 | %4
 A,,A,,A,,A,, A,2 A,2 | D,D,D,D, =D,4 | E,E,E,E, F,F,B,B, | E,4- E,4 | A,A,A,A, A,A, A,2 | %9
 D,D,D,D, D,D, D,2 | E,E,E,E, E,2 E,2 | A,2 =A,2 B,4 | A,A,A,A, A,A, A,2 | D,D,D,D, D,D, D,2 | %14
 E,E,E,E, E,2 E,2 | A,,6 z2 |] %16

